!!!COM: Schubert, Franz Peter
!!!CDT: 1797-1828
!!!OTL: Die Post
!!!OPS: Opus 89
!!!SCT: DV 911
!!!YOR: Franz Schubert: Selected songs
!!!PPE: Max Friedlaender
!!!PSR: C.F. Peters 
!!!PSP: Frankfurt, London, New York
!!!PSD: n.d.
!!!PPG: pp.38-41
!!!ODT: 1827///
!!!ONB: Leading and trailing bars of rest have been deleted.
**kern
*M6/8
*MM[Etwas geschwind]
*E-:
*k[b-e-a-]
=1
4.r
8r
8b-
8b-
=2
4b-
8b-
4g
8g
=3
4b-
8b-
4g
8r
=4
4.r
4r
8g
=5
4a-
8e-
8e-
8a-
8cc
=6
4ee-
8cc
4a-
8a-
=7
[2.ff
=8
4ff]
8r
4.r
=9
2.r
=10
4.r
4r
8ee-
=11
4ee-
8b-
8g
8e-
8g
=12
4cc
8b-
4.b-
=13
4.r
(4dd-
8cc)
=14
[(2.cc
=15
4cc]
8b-)
(4cc
8ddn)
=16
[2.ee-
=17
4ee-]
8r
4.r
=18
2.r
=19
4.r
4r
8g-
=20
4g-
8r
4r
8g
=21
4g-
8g-
(8g-
8a-)
8b-
=22
4a-
8r
4r
8a-
=23
[(4.a-
8a-]
8b--)
8a-
=24
4a-
8a-
(8a-
8dd-)
8cc-
=25
4b-
8r
4r
8dd-
=26
[4.ee-
4ee-]
8ccn
=27
[4.dd-
4dd-]
8r
=28
2.r
=29
4.r
4r
8b-
=30
4b-
8cc-
4b-
8cc-
=31
4b-
8ee-
4b-
8ee-
=32
(16dd-
[16ff
4ff_
8ff]
8ee-)
8dd-
=33
(4.ee-
4b-)
8b-
=34
4b-
8ccn
4b-
8cc
=35
4b-
8ee-
4b-
8ee-
=36
(2.ff
=37
[4.aa-
4aa-)]
8dd-
=38
[4.ee-
8ee-]
8r
8r
=39
2.r
=40
2.r
=41
2.r
=42
2.r
=43
2.r
=44
2.r
=45
2.r
=46
4.r
4r
8b-
=47
4b-
8b-
4g
8g
=48
4b-
8b-
4g
8r
=49
4.r
4r
8g
=50
4a-
8e-
(8e-
8a-)
8cc
=51
4ee-
8cc
4a-
8a-
=52
[2.ff
=53
4ff]
8r
4.r
=54
2.r
=55
4.r
4r
8ee-
=56
4ee-
8b-
(8g
8e-)
8g
=57
4cc
8b-
4.b-
=58
4.r
(4dd-
8cc)
=59
[(2.cc
=60
4cc]
8b-)
(4cc
8ddn)
=61
[2.ee-
=62
4ee-]
8r
4.r
=63
2.r
=64
4.r
4r
8g-
=65
[4.g-
4g-]
8g-
=66
4g-
8g-
(8g-
8a-)
8b-
=67
4a-
8r
4r
8a-
=68
[(4.a-
8a-]
8b--)
8a-
=69
4a-
8a-
(8a-
8dd-)
8cc-
=70
4b-
8r
4r
8dd-
=71
[4.ee-
4ee-]
8ccn
=72
[4.dd-
4dd-]
8r
=73
2.r
=74
4.r
4r
8b-
=75
4b-
8cc-
4b-
8cc-
=76
4b-
8ee-
4b-
8ee-
=77
(16dd
[16ff
4ff_
8ff]
8ee-)
8dd
=78
(4.ee-
8b-)
8r
8b-
=79
4b-
8ccn
4b-
8cc
=80
4b-
8ee-
4b-
8e-
=81
(2.ff
=82
[4.aa-
4aa-)]
8dd
=83
[2.ee-
=84
4ee-]
8r
4.r
==
*-
!!!ENC: David Huron
!!!EMD: Paul von Hippel updated this file in the following ways (1998/9/2,21-22/):
!!!EMD:  (1) changed the representation of slurs from curly braces to parentheses 
!!!EMD:  (2) changed freeform comments into reference records and tandem interpretations
!!!EMD:  (3) changed final barline from quadruple (====) to double (==)
!!!EMD:  (4) added key signatures, key designations, and tempi
!!!EEV: Version 2.0
